X: 499
T: Ge jiucai
%%abc-version 2.0
%%abcx-abcm2ps-target-version 5.9.1 (29 Sep 2008)
%%abc-creator hum2abc beta
%%abcx-conversion-date 2013/10/02 07:52:30
%%abc-edited-by Helmut Schaffrath
%%humdrum-veritas 1651404259
%%humdrum-veritas-data 1636410208
%%continueall 1
%%barnumbers 0
L: 1/8
M: 2/4
K: G
G2G E [I:setbarnb 1]| 
D2D2 | 
G2G B | 
A4 | 
d2d B | 
A2G2 | 
E D E G | 
D4 | 
G2G E | 
D2D2 | 
G3B | 
A4 | 
d2G2 | 
A B A G | 
D3E | 
D4 |]  



